X:1
T: The Queen Mother's Progress
C:
R:Strathspey
Q: 128
K:A
M:4/4
L:1/16
A3B|:cA3 A4 FD3 D4|EC3 c3A B3E e3d|cA3 AE3 ((3F2D2E2) ((3F2G2A2) |EC3 B3G A4 A3B|
cA3 AE3 FD3 DF3|EC3 e3c B4 e3d|cA3 AE3 ((3F2E2D2) ((3F2G2A2) |EC3 B3G A4 c3d|
eA3 A4 ((3f2d2A2) a4|((3e2c2A2) a3c B4 c3B|((3A2E2A2) ((3c2B2A2) F3D ((3d2e2f2) |ce3 cB3 A4 c3d|
eA3 A4 ((3f2d2A2) a4|((3e2c2A2) a3c B4 c3B|AE3 EC3 ((3F2D2F2) ((3A2G2F2) |1EA3 d3B A4 A3B:|2Ac3 e3G A4||
